src/pos-icons/record-player.svg

<svg height="24" viewBox="0 0 24 24" width="24" xmlns="http://www.w3.org/2000/svg"><path d="m5 17.5a.5.5 0 0 1 -.5.5h-1a.5.5 0 0 1 -.5-.5v-.5h-1a1 1 0 0 1 -1-1v-3a1 1 0 0 1 1-1h17v-2h-12l-1 1v-2a1 1 0 0 1 1-1h12v-1h2v1a1 1 0 0 1 1 1v1h-1v2h1a1 1 0 0 1 1 1v3a1 1 0 0 1 -1 1h-1v.5a.5.5 0 0 1 -.5.5h-1a.5.5 0 0 1 -.5-.5v-.5h-14zm-2-3.5v1h2v-1zm3 0v1h2v-1zm14.5-.5a1 1 0 0 0 -1 1 1 1 0 0 0 1 1 1 1 0 0 0 1-1 1 1 0 0 0 -1-1z"/></svg>

<?xml version="1.0" encoding="UTF-8"?><!DOCTYPE svg PUBLIC "-//W3C//DTD SVG 1.1//EN" "http://www.w3.org/Graphics/SVG/1.1/DTD/svg11.dtd"><svg xmlns="http://www.w3.org/2000/svg" xmlns:xlink="http://www.w3.org/1999/xlink" version="1.1" id="mdi-record-player" width="24" height="24" viewBox="0 0 24 24"><path d="M5,17.5A0.5,0.5 0 0,1 4.5,18H3.5A0.5,0.5 0 0,1 3,17.5V17H2A1,1 0 0,1 1,16V13A1,1 0 0,1 2,12H19V10H7L6,11V9A1,1 0 0,1 7,8H19V7H21V8A1,1 0 0,1 22,9V10H21V12H22A1,1 0 0,1 23,13V16A1,1 0 0,1 22,17H21V17.5A0.5,0.5 0 0,1 20.5,18H19.5A0.5,0.5 0 0,1 19,17.5V17H5V17.5M3,14V15H5V14H3M6,14V15H8V14H6M20.5,13.5A1,1 0 0,0 19.5,14.5A1,1 0 0,0 20.5,15.5A1,1 0 0,0 21.5,14.5A1,1 0 0,0 20.5,13.5Z" /></svg>
